X: 95
P: No. XCV.
M: 3/4
L: 1/8
K: Gm
V: 1
d2(defe) | (dc)(de)(fd) | {d}c2(BA)(GF) | F4 (GA) |\
b2(agfg) | f4 (dc) |\
|: GF |\
{g}f2(ed)(cB) | g2(ag)(fe) | d4 ({e}dc) |\
d2d2 (de) | A2A2 (Bc) | d2G2 (GA) | G4 |]
V: 2 clef=bass middle=d
z2 |\
g2B2d2 | g2G2z2 | g2g2g2 | c2c2c2 | d2d2d2 | B2B2B2 | f2A2c2 |
f2F2z2 | G2B2d2 | B2G2d2 | e2c'2c2 | f2F2z2 | g2g2g2 | d2D2z2 | G2B2d2 | g2G2 :||: z2 |
f2F2A2 | B2B2c2 | d4GA | B2B2Bc | d2d2BA | G2B2d2 | G4 |]

